X:40
T: DR HANS HAT HOSEN A
N: K0298
O: Europa, Mitteleuropa, Deutschland; Frankreich, Elsass
R: Kinder -, Kose -, Scherz - Lied
M: 2/4
L: 1/16
K: F
 | F4G4 | A3GF2
A2 | G4E4 | F4z4 |
F2F2G2G2 | A3GF2
A2 | G4E4 | F4z4 |
c2B2G2G2 | c2A2F2F2 |
c2B2G2G2 | c2A2F2F2 |
F4G4 | A3GF2
A2 | G4E4 | F4z4

@@@ Tune index: 7377
